X:1
T:[ID 5-22]
T:[ID 5-22]
T:Bezeichnung standardisiert: S\"achsischer Rebell; S\"acksischer Rebell In dieser Quelle auch als: Sachsische Rebel In dieser Quelle auch als: Sacksische Rebell
T:Urheber unbekannt Datum in der hier transkribierten schriftlichen Quelle: 1776 - 1791
C:Urheber unbekannt
C:Datum in der hier transkribierten schriftlichen Quelle: 1776 - 1791
L:1/8
M:2/4
K:G
V:1 treble 
V:1
 GGGA | B/c/B/A/ GA | BGBc | d/e/d/c/ Bc | dddd | de/f/ gd | dccB | B2 A2 :: d2 c2 | B2 A2 | %10
 (3ded (3cdc | (3BcB A2 | GABc | de/f/ gd | BA/G/ AF | G2 G,2 :| %16

